assets/img/svg/news.svg

<svg width="28" height="28" viewBox="0 0 28 28" fill="none" xmlns="http://www.w3.org/2000/svg">
<path d="M17.153 9.37609V22.6142C17.1546 23.4524 17.3367 24.2804 17.6869 25.0419C18.0372 25.8033 18.5474 26.4804 19.1829 27.027H5.38576C4.80606 27.0277 4.2319 26.9141 3.69617 26.6926C3.16045 26.4711 2.67369 26.1461 2.26378 25.7362C1.85386 25.3263 1.52885 24.8396 1.30737 24.3038C1.08588 23.7681 0.972273 23.1939 0.973047 22.6142V9.37609H17.153ZM3.91486 18.2015H14.2112V16.7306H3.91486V18.2015ZM3.91486 15.2597H14.2112V13.7888H3.91486V15.2597ZM18.6239 22.6142C18.6239 23.7846 19.0888 24.907 19.9164 25.7345C20.7439 26.562 21.8663 27.027 23.0366 27.027C24.207 27.027 25.3293 26.562 26.1569 25.7345C26.9844 24.907 27.4493 23.7846 27.4493 22.6142V0.550659H8.32757V7.90519H18.6239V22.6142Z" fill="#F1AF27"/>
</svg>

<svg width="28" height="28" fill="none" xmlns="http://www.w3.org/2000/svg"><path d="M17.153 9.376v13.238a5.837 5.837 0 002.03 4.413H5.386a4.408 4.408 0 01-4.413-4.413V9.376h16.18zM3.915 18.201H14.21v-1.47H3.915v1.47zm0-2.941H14.21v-1.471H3.915v1.47zm14.709 7.354a4.412 4.412 0 108.825 0V.551H8.328v7.354h10.296v14.71z" fill="#F1AF27"/></svg>
